X:1
T:Title
%%score { ( 1 3 ) | ( 2 4 ) }
L:1/8
M:6/8
K:G
V:1 treble nm="Grand Piano"
V:3 treble 
V:2 bass 
V:4 bass 
V:1
 z3 z2[Q:1/4=100] D | GGG [DB][DA][DG] | [EA][EG][CE] [B,G]2 B | ded BAG | %4
[M:5/8] [FA]-[FA]- [FA]3 |[M:1/8] D |[M:3/4] GG GB AG | AG A B2 B | d>e d[GB] GA |[M:5/8] G-G- G3 | %10
[M:1/8] D |[M:3/4] GG GB AG | B6 | d>e dB AG |[M:5/8] [FA]-[FA]- [FA]3 |[M:1/8] D | %16
[M:3/4] GG GB AG | AG A B2 B | d>e d[GB] GA |[M:13/8] G-G- G3 z z z z z z z2 |] %20
V:2
 z3 z2 [G,B,] | [G,B,D][G,B,D][G,B,D] [G,,G,][A,,F,][B,,G,] | %2
 [C,G,][C,G,][C,G,] [G,,G,]2[K:treble] [G,D] | [G,B,G][G,CG][G,B,G] [G,DG][K:bass][F,D][E,^CE] | %4
[M:5/8] [D,D]-[D,D]- [D,D]3 |[M:1/8] [D,F,C] |[M:3/4] [G,B,][G,B,D] [G,B,D][G,D] [F,A,D][E,A,^C] | %7
 [D,F,D][E,G,B,] [D,F,D][K:treble] [G,D]2 [G,D] | %8
 [G,B,G]>[G,CG] [G,B,G][K:bass][D,D] [D,B,D][D,C] |[M:5/8] [G,B,D]-[G,B,D]- [G,B,D]3 | %10
[M:1/8] [G,B,] |[M:3/4][K:treble] [G,B,D][G,B,D] [G,B,D][G,DG] [G,CF][G,B,] | G6 | %13
 [G,B,G]>[G,CG] [G,B,G][G,DG][K:bass] [F,D][E,^CE] |[M:5/8] [D,D]2 D, D,2 |[M:1/8] [D,F,C] | %16
[M:3/4] [G,B,][G,B,D] [G,B,D][G,D] [F,A,D][E,A,^C] | %17
 [D,F,D][E,G,B,] [D,F,D][K:treble] [G,D]2 [G,D] | %18
 [G,B,G]>[G,CG] [G,B,G][K:bass][D,D] [D,B,D][D,C] | %19
[M:13/8] [G,B,D]-[G,B,D]- [G,B,D]3 z z z z z z z2 |] %20
V:3
 x6 | x6 | x6 | x6 |[M:5/8] x5 |[M:1/8] x |[M:3/4] x6 | x6 | x6 |[M:5/8] x5 |[M:1/8] x | %11
[M:3/4] x6 | z2 D D2 B | x6 |[M:5/8] z2 D D2 |[M:1/8] x |[M:3/4] x6 | x6 | x6 |[M:13/8] x13 |] %20
V:4
 x6 | x6 | x5[K:treble] x | x4[K:bass] x2 |[M:5/8] x5 |[M:1/8] x |[M:3/4] x6 | x3[K:treble] x3 | %8
 x3[K:bass] x3 |[M:5/8] x5 |[M:1/8] x |[M:3/4][K:treble] x6 | [G,D]2 G, G,2 [G,DG] | %13
 x4[K:bass] x2 |[M:5/8] x5 |[M:1/8] x |[M:3/4] x6 | x3[K:treble] x3 | x3[K:bass] x3 | %19
[M:13/8] x13 |] %20

